X:45
T:Julia Clifford's
M:2/4
L:1/8
R:polka
D:Feadoga Stain 2 by Mary Bergin
D:Meiteal by Seamus Begley And Stephen Cooney
K: Dmaj
|:Ad f/e/d/c/|dF A>d|cE G/B/G/B/|AD DF|
Ad f/e/d/c/|dF A>d|cA GE|1{G}ED DB:|2{G}ED Dg||
|:af d/e/d/B/|cb bc'|bB c>B|Aa a/b/a/f/|
af d/e/d/B/|cb b^a|bB cB/c/|1ed d/e/f/g/:|2ed d>B||
